src/assets/creating-load-status-1.svg

<svg width="329" height="18" viewBox="0 0 329 18" fill="none" xmlns="http://www.w3.org/2000/svg">
<path d="M2.508 6.22L1.068 7.252L0.54 6.472L2.88 4.792H3.528V13H2.508V6.22ZM8.49459 4.408H9.44259L5.87859 13H4.93059L8.49459 4.408ZM13.5815 11.236H9.64547V10.468L13.4855 4.792H14.5895V10.276H15.6455V11.236H14.5895V13H13.5815V11.236ZM13.5815 10.276V6.28H13.5335L10.8095 10.276H13.5815Z" fill="#9390A0"/>
<rect x="21" y="7" width="65" height="4" rx="2" fill="#07AFF0"/>
<rect x="102" y="7" width="65" height="4" rx="2" fill="#EFEFEF"/>
<rect x="183" y="7" width="65" height="4" rx="2" fill="#EFEFEF"/>
<rect x="264" y="7" width="65" height="4" rx="2" fill="#EFEFEF"/>
</svg>

<svg width="329" height="18" fill="none" xmlns="http://www.w3.org/2000/svg"><path d="M2.508 6.22l-1.44 1.032-.528-.78 2.34-1.68h.648V13h-1.02V6.22zm5.987-1.812h.948L5.879 13H4.93l3.564-8.592zm5.087 6.828H9.645v-.768l3.84-5.676h1.104v5.484h1.056v.96H14.59V13h-1.008v-1.764zm0-.96V6.28h-.049l-2.723 3.996h2.771z" fill="#9390A0"/><rect x="21" y="7" width="65" height="4" rx="2" fill="#07AFF0"/><rect x="102" y="7" width="65" height="4" rx="2" fill="#EFEFEF"/><rect x="183" y="7" width="65" height="4" rx="2" fill="#EFEFEF"/><rect x="264" y="7" width="65" height="4" rx="2" fill="#EFEFEF"/></svg>
